!!!ONB: MCCC : IFM0076_04 : Extracted Monophonic Melody
!!!COM: Mendelssohn, Felix
!!!OPR: Lieder ohne Worte
!!!OMV: 4
!!!SCT: Op.30
!!!ODT: 1833///
**kern
*staff1
*clefG2
*k[f#c#]
*D:
*M3/8
=2
16e
16e
16e
16e
16f#[
16f#]
=3
16f#[
16f#]
16g#
16a#
16b
16cc#
=4
[16dd
16dd]
8a#
8b
=5
8r
8a#
8b
=6
4.r
=7
16r
16f#
16f#
16ee
16dd
16cc#
=8
16ee
16ee[
16ee]
16dd
16cc#
16b
=9
16a
16a[
16a]
16g#
16f#
16f
=10
8f
8f#
8f#
=11
16f#[
16f#]
16g#
16a#
16b
16cc#
=12
[16dd
16dd]
8a#
8b
=13
8r
8cc
8cc#
=14
16r
16f#
16f#
16f#
8ff#
=15
4.r
=16
16r
16f#
16f#
16f#
8ff#
=17
8.ee
16dd
16cc#
16dd
=18
8.cc#
16f#
16e#
16f#
=19
4g#
8r
=20
8a
32a
32b
16a
16g#
16a
=21
8.b
16b
16a
16b
=22
8cc#
32cc#
32dd
16cc#
16b#
16cc#
=23
8.ff
16ff
16dd#
16ee#
=24
16ff#
16ff#
16ff#
16ff#
16ff#
16ff#
=25
16ff#[
16ff#]
16ee[
16ee]
[16dd
16dd]
=26
[16dd
16dd]
8b
8g
=27
16e
16e
16e[
16e]
16a[
16a]
=28
8.f#
16f#
16a
16dd
=29
16ff#[
16ff#]
16ee[
16ee]
[16dd
16dd]
=30
8dd
8b
8g
=31
16e
16e
16e[
16e]
16g[
16g]
=32
[16d
16d_
16d_
16d]
16g[
16g]
=33
16e
16e
16e[
16e]
16g[
16g]
=34
[16d
16d_
16d_
16d]
16B
16B
=35
16B
16B
16B
16B
16f#[
16f#]
=36
16f#[
16f#]
16g#
16a#
16b
16cc#
=37
[16dd
16dd]
8a#
8b
=38
8r
8a#
8b
=39
4.r
=40
16r
16f#
16f#
16ee
16dd
16cc#
=41
16ee
16ee[
16ee]
16dd
16cc#
16b
=42
16a
16a[
16a]
16g#
16f#
16f
=43
8f
8f#
8f#
=44
16f#[
16f#]
16g#
16a#
16b
16cc#
=45
[16dd
16dd]
8a#
8b
=46
8r
8cc
8cc#
=47
16r
16f#
16f#
16f#
8ff#
=48
4.r
=49
16r
16f#
16f#
16f#
8ff#
=50
8.ee
16dd
16cc#
16dd
=51
8.cc#
16f#
16e#
16f#
=52
4g#
8r
=53
8a
32a
32b
16a
16g#
16a
=54
8.b
16b
16a
16b
=55
8cc#
32cc#
32dd
16cc#
16b#
16cc#
=56
8.ff
16ff
16dd#
16ee#
=57
16ff#
16ff#
16ff#
16ff#
16ff#
16ff#
=58
16ff#[
16ff#]
16ee[
16ee]
[16dd
16dd]
=59
[16dd
16dd]
8b
8g
=60
16e
16e
16e[
16e]
16a[
16a]
=61
8.f#
16f#
16a
16dd
=62
16ff#[
16ff#]
16ee[
16ee]
[16dd
16dd]
=63
8dd
8b
8g
=64
16e
16e
16e[
16e]
16g[
16g]
=65
[16d
16d_
16d_
16d]
16g[
16g]
=66
16e
16e
16e[
16e]
16g[
16g]
=67
[16d
16d_
16d_
16d]
16g[
16g]
=68
16d#
16d#
16d#[
16d#]
16g[
16g]
=69
16e
16e
16e[
16e]
16g#[
16g#]
=70
16b[
16b]
16g#[
16g#]
16e[
16e]
=71
16e
16e
16e[
16e]
16a[
16a]
=72
16f
16f
16f[
16f]
16a[
16a]
=73
16f#
16f#
16f#[
16f#]
16a#[
16a#]
=74
16cc#[
16cc#]
16a#[
16a#]
16f#[
16f#]
=75
16f#
16f#
16f#[
16f#]
16b[
16b]
=76
16b
16b
16b[
16b]
16b[
16b]
=77
16b[
16b]
16cc#
16dd#
16ee
16ff#
=78
4.gg
=79
8ee
16r
16e
16g[
16g]
=80
16g
16g
16g[
16g]
16g[
16g]
=81
16g[
16g]
16a
16b
16cc
16dd
=82
4.ee
=83
8cc
8r
8cc
=84
8b
16cc#
16dd#
16ee
16ff#
=85
8gg
8ee
8cc
=86
8gg
8ee
8b
=87
8gg
8ee
8a#
=88
8ff#
8dd
8b
=89
8dd
8b
8g
=90
8b
8g
8d
=91
8g
8d
8B
=92
8d
8B
8F
=93
8F#
16a#
16b
16cc#
16dd
=94
4.ee[
=95
16ee]
16ff#
16aa#
16bb
16ccc#
16ddd
=96
4.eee[
=97
16eee]
16f#
16a#
16b
16cc#
16dd
=98
16ee
16f#
16a#
16b
16cc#
16dd
=99
16ee
16a#
16cc#
16dd
16ee
16ff#
=100
16gg
16a#
16cc#
16dd
16ee
16ff#
=101
16gg
16ff#
16ee
16dd
16cc#
16dd
=102
16ee
16dd
16cc#
16b
16a#
16b
=103
16cc#
16a#
16g
16f#
16e
16f#
=104
16g
16e
16c#
16B
8f#
=105
8f#
16g#
16a#
16b
16cc#
=106
[16dd
16dd]
8a#
8b
=107
8r
8a#
8b
=108
16r
16e
16e
16e
8f#
=109
8r
16g#
16a#
16b
16cc#
=110
[16dd
16dd]
8a#
8b
=111
8r
8a#
8b
=112
4.r
=113
8r
16g#
16a#
16b
16cc#
=114
8dd
8a#
8b
=115
8f#
8g
8f#
=116
8g
8b
8cc#
=117
8g#
8a
8g#
=118
8a
8ff
8ff#
=119
8cc#
8dd
8cc#
=120
8dd
8a#
8b
=121
8cc#
8dd
8ee
=122
8ff#
8ee#
8ff#
=123
8gg
8gg#
8aa#
=124
16bb
16bb
16bb
16bb
16bb
16bb
=125
16bb[
16bb]
16aa[
16aa]
16gg[
16gg]
=126
16gg[
16gg]
8ee
8cc
=127
16a
16a
16a[
16a]
[16dd
16dd]
=128
8.b
16b
16dd
16gg
=129
16bb[
16bb]
16aa[
16aa]
16gg[
16gg]
=130
16gg[
16gg]
8ee
8cc
=131
16a
16a
16a[
16a]
16cc[
16cc]
=132
16g
16g
16g[
16g]
16cc[
16cc]
=133
16a
16a
16a[
16a]
16cc[
16cc]
=134
16g
16g
16g
16g
16g[
16g]
=135
16e
16e
16e
16e
16cc[
16cc]
=136
16b
16b
16b[
16b]
16a[
16a]
=137
16g#
16g#
16g#[
16g#]
16g[
16g]
=138
16f#[
16f#]
16a#[
16a#]
16cc#[
16cc#]
=139
16ee[
16ee]
16dd#[
16dd#]
16cc[
16cc]
=140
16b
16b
16b[
16b]
16a[
16a]
=141
16g#
16g#
16g#[
16g#]
16g[
16g]
=142
16f#[
16f#]
16a#[
16a#]
16cc#[
16cc#]
=143
16ee[
16ee]
16dd#[
16dd#]
16cc[
16cc]
=144
16b
16b
16b
16b
16b
16b[
=145
8b]
8g#
8dd
=146
16cc#
16cc#
16cc#
16cc#
16cc#
16cc#[
=147
8cc#]
8e
8ee
=148
8dd
16ee
16dd
16cc#
16b
=149
8gg
8.a#
16b
=150
16b
16cc
16cc
16cc
16cc
16cc
=151
16cc
16cc
16cc
16cc
16cc
16cc
=152
8b
16cc#
16dd
16ee
16ff#
=153
8gg
8.a#
16b
=154
16b
16cc
16cc
16cc
16cc
16cc
=155
16cc
16cc
16cc
16cc
16cc
16cc
=156
8b
16cc#
16dd
16ee
16ff#
=157
8gg
4a#
=158
8b
16cc#
16dd
16ee
16ff#
=159
8gg
4a#
=160
8b
16cc#
16dd
16ee
16ff#
=161
4gg
8a#
=162
8b
8r
8r
=163
4.r
=164
4.r
=165
8r
8r
16g
16g
=166
16f#
16f#
16a#
16a#
16b
16b
=167
16cc#
16cc#
16dd
16dd
16cc#
16cc#
=168
16b
16b
16a
16a
16g#
16g#
=169
16g
16g
16f
16f
16f#
16f#
=170
16c#
16c#
16d
16d
16d
16d
=171
8r
8r
8f#
=172
16f#[
16f#]
16g#
16a#
16b
16cc#
=173
[16dd
16dd_
16dd_
16dd_
16dd_
16dd_
=174
16dd_
16dd_
16dd_
16dd_
16dd_
16dd_
=175
8dd_
8dd_
8dd_
=176
8dd_
4dd_
=177
8dd_
4dd_
=178
8dd_
4dd]
==
*-
